;FLAVOR:Marlin
;TIME:8382
;Filament used: 3.71328m
;Layer height: 0.2
;MINX:77.291
;MINY:73.739
;MINZ:0.24
;MAXX:143.849
;MAXY:146.245
;MAXZ:79.89
;Generated with Cura_SteamEngine 4.7.0
M140 S60
M105
M190 S60
M104 S210
M105
M109 S210
M82 ;absolute extrusion mode
; Ender 3 Custom Start G-code
G92 E0 ; Reset Extruder
G28 ; Home all axes
G1 Z2.0 F3000 ; Move Z Axis up little to prevent scratching of Heat Bed
G1 X0.1 Y20 Z0.3 F5000.0 ; Move to start position
G1 X0.1 Y200.0 Z0.3 F1500.0 E15 ; Draw the first line
G1 X0.4 Y200.0 Z0.3 F5000.0 ; Move to side a little
G1 X0.4 Y20 Z0.3 F1500.0 E30 ; Draw the second line
G92 E0 ; Reset Extruder
G1 Z2.0 F3000 ; Move Z Axis up little to prevent scratching of Heat Bed
G1 X5 Y20 Z0.3 F5000.0 ; Move over to prevent blob squish
G92 E0
G92 E0
G1 F1500 E-7
;LAYER_COUNT:394
;LAYER:-6
M107
G0 F9000 X82.443 Y81.242 Z0.24
;TYPE:SUPPORT-INTERFACE
G1 F1500 E0
G1 F1125 X83.194 Y80.513 E0.08355
G1 X83.195 Y80.514 E0.08366
G1 X83.275 Y80.44 E0.09236
G1 X83.274 Y80.439 E0.09247
G1 X85.42 Y78.524 E0.32206
G1 X86.19 Y77.885 E0.40194
G1 X86.33 Y77.777 E0.41605
G1 X87.056 Y77.26 E0.48719
G1 X87.207 Y77.161 E0.50161
G1 X87.963 Y76.701 E0.57225
G1 X88.123 Y76.611 E0.5869
G1 X88.911 Y76.208 E0.65755
G1 X89.081 Y76.129 E0.67252
G1 X89.899 Y75.783 E0.74341
G1 X90.036 Y75.73 E0.75514
G1 X90.925 Y75.429 E0.83006
G1 X91.059 Y75.389 E0.84122
G1 X91.936 Y75.162 E0.91354
G1 X92.095 Y75.126 E0.92655
G1 X92.975 Y74.965 E0.99796
G1 X93.146 Y74.941 E1.01174
G1 X94.024 Y74.845 E1.08225
G1 X94.22 Y74.833 E1.09792
G1 X95.54 Y74.804 E1.20332
G1 X95.673 Y74.805 E1.21393
G1 X96.667 Y74.868 E1.29344
G1 X96.896 Y74.892 E1.31182
G1 X97.732 Y75.008 E1.37919
G1 X97.936 Y75.044 E1.39573
G1 X98.802 Y75.23 E1.46643
G1 X98.974 Y75.274 E1.4806
G1 X99.812 Y75.518 E1.55027
G1 X99.991 Y75.578 E1.56534
G1 X100.832 Y75.891 E1.63697
G1 X100.975 Y75.951 E1.64935
G1 X101.805 Y76.332 E1.72225
G1 X101.957 Y76.408 E1.73582
G1 X102.732 Y76.835 E1.80645
G1 X102.882 Y76.925 E1.82042
G1 X103.64 Y77.417 E1.89255
G1 X103.77 Y77.51 E1.90531
G1 X104.462 Y78.035 E1.97465
G1 X104.616 Y78.162 E1.99058
G1 X105.609 Y79.063 E2.09761
G1 X105.718 Y79.167 E2.10964
G1 X106.924 Y80.381 E2.24623
G1 X107.016 Y80.477 E2.25685
G1 X107.633 Y81.144 E2.32938
G1 X107.727 Y81.253 E2.34087
G1 X108.121 Y81.747 E2.39131
G1 X108.572 Y82.244 E2.44488
G1 X109.09 Y82.687 E2.49929
G1 X109.662 Y83.062 E2.55388
G1 X110.275 Y83.361 E2.60833
G1 X110.925 Y83.583 E2.66315
G1 X111.787 Y83.741 E2.73311
G1 X112.292 Y83.791 E2.77362
G1 X112.435 Y83.81 E2.78513
G1 X113.335 Y83.965 E2.85803
G1 X113.479 Y83.994 E2.86976
G1 X114.157 Y84.157 E2.92542
G1 X114.363 Y84.211 E2.94242
G1 X115.301 Y84.5 E3.02077
G1 X115.445 Y84.551 E3.03296
G1 X116.278 Y84.875 E3.10431
G1 X116.464 Y84.956 E3.1205
G1 X117.256 Y85.335 E3.19059
G1 X117.402 Y85.411 E3.20373
G1 X118.185 Y85.857 E3.27566
G1 X118.34 Y85.953 E3.29021
G1 X119.059 Y86.436 E3.35936
G1 X119.227 Y86.558 E3.37593
G1 X119.907 Y87.09 E3.44485
G1 X120.049 Y87.21 E3.45969
G1 X120.727 Y87.825 E3.53276
G1 X120.815 Y87.912 E3.54263
G1 X121.45 Y88.579 E3.61615
G1 X121.57 Y88.714 E3.63057
G1 X122.122 Y89.388 E3.70011
G1 X122.235 Y89.536 E3.71497
G1 X122.763 Y90.283 E3.78799
G1 X122.83 Y90.387 E3.79787
G1 X123.221 Y91.022 E3.85739
G1 X123.285 Y91.133 E3.86762
G1 X123.658 Y91.689 E3.92107
G1 X124.106 Y92.204 E3.97555
G1 X124.614 Y92.659 E4.02999
G1 X125.177 Y93.047 E4.08457
G1 X125.784 Y93.359 E4.13905
G1 X126.426 Y93.594 E4.19362
G1 X127.095 Y93.744 E4.24835
G1 X127.934 Y93.812 E4.31554
G1 X128.071 Y93.813 E4.32648
G1 X129.072 Y93.849 E4.40644
G1 X129.195 Y93.858 E4.41628
G1 X130.112 Y93.96 E4.48993
G1 X130.287 Y93.985 E4.50404
G1 X131.176 Y94.149 E4.5762
G1 X131.299 Y94.177 E4.58627
G1 X132.193 Y94.411 E4.66004
G1 X132.356 Y94.46 E4.67363
G1 X133.198 Y94.746 E4.74461
G1 X133.364 Y94.81 E4.75881
G1 X134.167 Y95.151 E4.82845
G1 X134.356 Y95.239 E4.84509
G1 X135.15 Y95.647 E4.91635
G1 X135.267 Y95.714 E4.92711
G1 X136.046 Y96.188 E4.9999
G1 X136.197 Y96.288 E5.01436
G1 X136.911 Y96.799 E5.08445
G1 X137.059 Y96.912 E5.09931
G1 X137.751 Y97.489 E5.17123
G1 X137.859 Y97.585 E5.18277
G1 X138.37 Y98.068 E5.2389
G1 X138.371 Y98.067 E5.23901
G1 X138.527 Y98.224 E5.25668
G1 X139.173 Y98.92 E5.33248
G1 X139.292 Y99.059 E5.34708
G1 X139.846 Y99.75 E5.41778
G1 X139.95 Y99.889 E5.43164
G1 X140.442 Y100.604 E5.50092
G1 X140.559 Y100.788 E5.51833
G1 X141.002 Y101.544 E5.58827
G1 X141.079 Y101.686 E5.60116
G1 X141.482 Y102.505 E5.67403
G1 X141.538 Y102.631 E5.68503
G1 X141.88 Y103.476 E5.7578
G1 X141.939 Y103.641 E5.77179
G1 X142.211 Y104.488 E5.8428
G1 X142.257 Y104.65 E5.85624
G1 X142.469 Y105.524 E5.92803
G1 X142.502 Y105.682 E5.94092
G1 X142.65 Y106.574 E6.01309
G1 X142.674 Y106.76 E6.02806
G1 X142.756 Y107.644 E6.09893
G1 X142.764 Y107.796 E6.11108
G1 X142.785 Y108.529 E6.16962
G1 X142.785 Y111.456 E6.40326
G1 X142.749 Y112.462 E6.48362
G1 X142.739 Y112.597 E6.49442
G1 X142.637 Y113.514 E6.56807
G1 X142.612 Y113.689 E6.58218
G1 X142.45 Y114.567 E6.65345
G1 X142.42 Y114.701 E6.66441
G1 X142.189 Y115.586 E6.73743
G1 X142.137 Y115.758 E6.75177
G1 X141.851 Y116.6 E6.82275
G1 X141.787 Y116.766 E6.83695
G1 X141.446 Y117.569 E6.90659
G1 X141.365 Y117.744 E6.92199
G1 X140.949 Y118.552 E6.99453
G1 X140.891 Y118.656 E7.00404
G1 X140.409 Y119.448 E7.07804
G1 X140.309 Y119.599 E7.0925
G1 X139.798 Y120.313 E7.16259
G1 X139.685 Y120.461 E7.17745
G1 X139.108 Y121.153 E7.24937
G1 X139.012 Y121.261 E7.26091
G1 X138.529 Y121.772 E7.31704
G1 X138.53 Y121.773 E7.31715
G1 X138.373 Y121.929 E7.33482
G1 X137.677 Y122.575 E7.41062
G1 X137.538 Y122.694 E7.42522
G1 X136.847 Y123.248 E7.49592
G1 X136.708 Y123.352 E7.50978
G1 X135.993 Y123.844 E7.57906
G1 X135.809 Y123.961 E7.59646
G1 X135.053 Y124.404 E7.66641
G1 X134.911 Y124.481 E7.6793
G1 X134.083 Y124.888 E7.75295
G1 X133.966 Y124.94 E7.76317
G1 X133.111 Y125.285 E7.83677
G1 X132.948 Y125.343 E7.85058
G1 X132.105 Y125.614 E7.92126
G1 X131.941 Y125.66 E7.93486
G1 X131.069 Y125.872 E8.00649
G1 X130.907 Y125.905 E8.01969
G1 X130.014 Y126.053 E8.09195
G1 X129.837 Y126.076 E8.10619
G1 X128.943 Y126.159 E8.17786
G1 X128.801 Y126.166 E8.18921
G1 X128.06 Y126.187 E8.24839
G1 X127.937 Y126.187 E8.2582
G1 X127.269 Y126.229 E8.31163
G1 X126.598 Y126.358 E8.36618
G1 X125.949 Y126.571 E8.4207
G1 X125.332 Y126.863 E8.47519
G1 X124.757 Y127.231 E8.52968
G1 X124.233 Y127.669 E8.5842
G1 X123.766 Y128.172 E8.63899
G1 X123.275 Y128.884 E8.70803
G1 X123.222 Y128.977 E8.71657
G1 X122.703 Y129.806 E8.79464
G1 X122.592 Y129.967 E8.81025
G1 X122.063 Y130.688 E8.88164
G1 X121.962 Y130.816 E8.89465
G1 X121.386 Y131.492 E8.96555
G1 X121.268 Y131.621 E8.9795
G1 X120.644 Y132.253 E9.0504
G1 X120.502 Y132.387 E9.06598
G1 X119.848 Y132.958 E9.13528
G1 X119.691 Y133.085 E9.1514
G1 X118.995 Y133.611 E9.22104
G1 X118.857 Y133.708 E9.23451
G1 X118.094 Y134.199 E9.30694
G1 X117.958 Y134.28 E9.31957
G1 X117.171 Y134.709 E9.39112
G1 X117.007 Y134.791 E9.40576
G1 X116.193 Y135.161 E9.47713
G1 X116.044 Y135.222 E9.48998
G1 X115.192 Y135.537 E9.56249
G1 X115.044 Y135.587 E9.57496
G1 X114.34 Y135.796 E9.63358
G1 X114.186 Y135.836 E9.64628
G1 X113.245 Y136.052 E9.72335
G1 X113.079 Y136.084 E9.73685
G1 X112.166 Y136.225 E9.81059
G1 X112.031 Y136.24 E9.82143
G1 X111.879 Y136.253 E9.83361
G1 X111.217 Y136.35 E9.88702
G1 X110.559 Y136.533 E9.94154
G1 X109.93 Y136.798 E9.99602
G1 X109.339 Y137.141 E10.05057
G1 X108.796 Y137.554 E10.10502
G1 X108.313 Y138.03 E10.15915
G1 X108.079 Y138.31 E10.18828
G1 X107.86 Y138.593 E10.21685
G1 X107.741 Y138.733 E10.23151
G1 X106.981 Y139.563 E10.32135
G1 X106.916 Y139.632 E10.32891
G1 X105.643 Y140.907 E10.47274
G1 X104.931 Y141.571 E10.55045
G1 X104.816 Y141.67 E10.56256
G1 X104.096 Y142.249 E10.63631
G1 X103.985 Y142.333 E10.64743
G1 X103.248 Y142.841 E10.71888
G1 X103.087 Y142.943 E10.73409
G1 X102.313 Y143.399 E10.8058
G1 X102.185 Y143.468 E10.81741
G1 X101.365 Y143.872 E10.89038
G1 X101.221 Y143.937 E10.90299
G1 X100.366 Y144.284 E10.97665
G1 X100.241 Y144.329 E10.98725
G1 X99.369 Y144.611 E11.06041
G1 X99.209 Y144.656 E11.07367
G1 X98.34 Y144.867 E11.14506
G1 X98.161 Y144.904 E11.15965
G1 X97.293 Y145.049 E11.2299
G1 X97.117 Y145.072 E11.24406
G1 X95.802 Y145.179 E11.34938
G1 X95.652 Y145.185 E11.36136
G1 X95.568 Y145.186 E11.36807
G1 X94.64 Y145.181 E11.44215
G1 X94.463 Y145.173 E11.45629
G1 X93.563 Y145.102 E11.52836
G1 X93.39 Y145.082 E11.54226
G1 X92.529 Y144.951 E11.61178
G1 X92.327 Y144.912 E11.6282
G1 X91.48 Y144.719 E11.69754
G1 X91.29 Y144.668 E11.71325
G1 X90.473 Y144.417 E11.78147
G1 X90.289 Y144.354 E11.797
G1 X89.448 Y144.027 E11.86902
G1 X89.291 Y143.96 E11.88265
G1 X88.485 Y143.577 E11.95388
G1 X88.338 Y143.5 E11.96713
G1 X87.587 Y143.073 E12.03609
G1 X87.393 Y142.953 E12.0543
G1 X86.699 Y142.488 E12.12098
G1 X86.515 Y142.353 E12.1392
G1 X85.529 Y141.564 E12.24
G1 X85.4 Y141.455 E12.25348
G1 X83.252 Y139.55 E12.48266
G1 X82.569 Y138.898 E12.55804
G1 X82.435 Y138.76 E12.57339
G1 X81.836 Y138.1 E12.64454
G1 X81.728 Y137.97 E12.65803
G1 X81.189 Y137.28 E12.72792
G1 X81.07 Y137.116 E12.7441
G1 X80.58 Y136.385 E12.81434
G1 X80.483 Y136.226 E12.82921
G1 X80.042 Y135.45 E12.90046
G1 X79.967 Y135.308 E12.91328
G1 X79.585 Y134.502 E12.98448
G1 X79.513 Y134.334 E12.99907
G1 X79.19 Y133.503 E13.07024
G1 X79.132 Y133.338 E13.0842
G1 X78.879 Y132.51 E13.15331
G1 X78.825 Y132.307 E13.17008
G1 X78.629 Y131.447 E13.24049
G1 X78.597 Y131.28 E13.25406
G1 X78.461 Y130.392 E13.32577
G1 X78.443 Y130.23 E13.33878
G1 X78.361 Y129.132 E13.42667
G1 X78.356 Y128.985 E13.43841
G1 X78.358 Y128.006 E13.51656
G1 X78.364 Y127.843 E13.52958
G1 X78.43 Y126.946 E13.60138
G1 X78.447 Y126.789 E13.61398
G1 X78.585 Y125.858 E13.68911
G1 X78.605 Y125.747 E13.69811
G1 X78.81 Y124.834 E13.77281
G1 X78.845 Y124.7 E13.78386
G1 X79.116 Y123.802 E13.85874
G1 X79.163 Y123.665 E13.8703
G1 X79.484 Y122.828 E13.94186
G1 X79.546 Y122.681 E13.95459
G1 X79.93 Y121.863 E14.02673
G1 X80.016 Y121.697 E14.04165
G1 X80.454 Y120.92 E14.11285
G1 X80.537 Y120.783 E14.12564
G1 X81.021 Y120.054 E14.19549
G1 X81.145 Y119.88 E14.21254
G1 X81.669 Y119.204 E14.28082
G1 X81.802 Y119.046 E14.2973
G1 X81.803 Y119.047 E14.29741
G1 X82.62 Y118.151 E14.39421
G1 X82.619 Y118.15 E14.39432
G1 X84.083 Y116.687 E14.55953
G1 X84.775 Y116.045 E14.63488
G1 X84.914 Y115.926 E14.64949
G1 X85.605 Y115.372 E14.72018
G1 X85.744 Y115.268 E14.73404
G1 X86.459 Y114.776 E14.80332
G1 X87.054 Y114.397 E14.85964
G1 X87.047 Y114.387 E14.86061
G1 X87.157 Y114.313 E14.87119
G1 X87.673 Y113.866 E14.92569
G1 X88.128 Y113.357 E14.98019
G1 X88.516 Y112.794 E15.03477
G1 X88.829 Y112.188 E15.08921
G1 X89.063 Y111.546 E15.14376
G1 X89.215 Y110.878 E15.19844
G1 X89.283 Y110.034 E15.26603
G1 X89.283 Y109.968 E15.2713
G1 X89.241 Y109.3 E15.32473
G1 X89.112 Y108.629 E15.37927
G1 X88.899 Y107.98 E15.4338
G1 X88.607 Y107.363 E15.48828
G1 X88.239 Y106.788 E15.54278
G1 X87.801 Y106.264 E15.59729
G1 X87.3 Y105.799 E15.65186
G1 X86.701 Y105.374 E15.71048
G1 X86.663 Y105.351 E15.71403
G1 X85.927 Y104.862 E15.78457
G1 X85.795 Y104.767 E15.79755
G1 X85.094 Y104.223 E15.86838
G1 X84.95 Y104.102 E15.88339
G1 X84.106 Y103.331 E15.97464
G1 X84.047 Y103.275 E15.98114
G1 X82.704 Y101.938 E16.13241
G1 X82.602 Y101.834 E16.14404
G1 X81.989 Y101.176 E16.21582
G1 X81.861 Y101.029 E16.23138
G1 X81.305 Y100.34 E16.30205
G1 X81.212 Y100.216 E16.31443
G1 X80.692 Y99.464 E16.38741
G1 X80.602 Y99.323 E16.40076
G1 X80.148 Y98.552 E16.47218
G1 X80.071 Y98.409 E16.48515
G1 X79.671 Y97.6 E16.55719
G1 X79.603 Y97.449 E16.57041
G1 X79.263 Y96.612 E16.64252
G1 X79.201 Y96.442 E16.65697
G1 X78.929 Y95.602 E16.72745
G1 X78.883 Y95.441 E16.74081
G1 X78.663 Y94.542 E16.81469
G1 X78.641 Y94.434 E16.82349
G1 X78.485 Y93.503 E16.89884
G1 X78.464 Y93.343 E16.91172
G1 X78.381 Y92.465 E16.98212
G1 X78.372 Y92.289 E16.99619
G1 X78.356 Y91.127 E17.08895
G1 X78.357 Y91.023 E17.09726
G1 X78.362 Y90.896 E17.1074
G1 X78.426 Y89.942 E17.18372
G1 X78.44 Y89.797 E17.19535
G1 X78.567 Y88.897 E17.26791
G1 X78.595 Y88.737 E17.28087
G1 X78.793 Y87.824 E17.35545
G1 X78.827 Y87.693 E17.36625
G1 X79.088 Y86.804 E17.44021
G1 X79.128 Y86.685 E17.45023
G1 X79.456 Y85.811 E17.52475
G1 X79.511 Y85.679 E17.53616
G1 X79.887 Y84.865 E17.60774
G1 X79.968 Y84.704 E17.62212
G1 X80.4 Y83.923 E17.69337
G1 X80.492 Y83.769 E17.70769
G1 X80.972 Y83.034 E17.77776
G1 X81.088 Y82.87 E17.7938
G1 X81.614 Y82.179 E17.86312
G1 X81.721 Y82.048 E17.87662
G1 X82.326 Y81.364 E17.94951
G1 X82.443 Y81.242 E17.96301
G0 F9000 X83.2 Y80.509
G1 F1125 X83.2 Y102.431 E19.71291
G0 F9000 X84.8 Y103.964
G1 F1125 X84.8 Y79.077 E21.6995
G0 F9000 X86.4 Y77.727
G1 F1125 X86.4 Y105.176 E23.8906
G0 F9000 X88 Y106.502
G1 F1125 X88 Y76.68 E26.27112
G0 F9000 X89.6 Y75.909
G1 F1125 X89.6 Y144.086 E31.7133
G0 F9000 X91.2 Y144.64
G1 F1125 X91.2 Y75.352 E37.24417
G0 F9000 X92.8 Y74.997
G1 F1125 X92.8 Y144.992 E42.83148
G0 F9000 X94.4 Y145.168
G1 F1125 X94.4 Y74.829 E48.44624
G0 F9000 X96 Y74.826
G1 F1125 X96 Y145.163 E54.06084
G0 F9000 X97.6 Y144.998
G1 F1125 X97.6 Y74.99 E59.64918
G0 F9000 X99.2 Y75.34
G1 F1125 X99.2 Y144.659 E65.18253
G0 F9000 X100.8 Y144.108
G1 F1125 X100.8 Y75.88 E70.62878
G0 F9000 X102.4 Y76.653
G1 F1125 X102.4 Y143.348 E75.95266
G0 F9000 X104 Y142.322
G1 F1125 X104 Y77.685 E81.11227
G0 F9000 X105.6 Y79.055
G1 F1125 X105.6 Y140.948 E86.05283
G0 F9000 X107.2 Y139.324
G1 F1125 X107.2 Y80.676 E90.73437
G0 F9000 X108.8 Y82.439
G1 F1125 X108.8 Y137.551 E95.13365
G0 F9000 X110.4 Y136.6
G1 F1125 X110.4 Y83.404 E99.37998
G0 F9000 X112 Y83.763
G1 F1125 X112 Y136.243 E103.56917
G0 F9000 X113.6 Y135.971
G1 F1125 X113.6 Y84.024 E107.7158
G0 F9000 X115.2 Y84.469
G1 F1125 X115.2 Y135.535 E111.79211
G0 F9000 X116.8 Y134.886
G1 F1125 X116.8 Y85.117 E115.76489
G0 F9000 X118.4 Y85.994
G1 F1125 X118.4 Y134.003 E119.59717
G0 F9000 X120 Y132.826
G1 F1125 X120 Y87.169 E123.24171
G0 F9000 X121.6 Y88.751
G1 F1125 X121.6 Y131.241 E126.63345
G0 F9000 X123.2 Y129.013
G1 F1125 X123.2 Y90.988 E129.66877
G0 F9000 X124.8 Y92.788
G1 F1125 X124.8 Y127.204 E132.416
G0 F9000 X126.4 Y126.423
G1 F1125 X126.4 Y93.585 E135.03727
G0 F9000 X128 Y93.813
G1 F1125 X128 Y126.187 E137.6215
G0 F9000 X129.6 Y126.099
G1 F1125 X129.6 Y93.904 E140.19145
G0 F9000 X131.2 Y94.155
G1 F1125 X131.2 Y125.841 E142.72076
G0 F9000 X132.8 Y125.391
G1 F1125 X132.8 Y94.611 E145.17775
G0 F9000 X134.4 Y95.262
G1 F1125 X134.4 Y124.733 E147.53026
G0 F9000 X136 Y123.84
G1 F1125 X136 Y96.161 E149.73971
G0 F9000 X137.6 Y97.364
G1 F1125 X137.6 Y122.641 E151.75743
G0 F9000 X139.2 Y121.043
G1 F1125 X139.2 Y98.952 E153.52083
G0 F9000 X140.8 Y101.2
G1 F1125 X140.8 Y118.806 E154.92622
G0 F9000 X142.4 Y114.778
G1 F1125 X142.4 Y105.24 E155.68758
G1 F1500 E148.68758
G0 F9000 X143.434 Y104.989
G0 X142.878 Y103.106
G0 X142.021 Y101.19
G0 X141.334 Y100.022
G0 X140.107 Y98.375
G0 X138.583 Y96.804
G0 X137.549 Y95.946
G0 X135.811 Y94.799
G0 X102.26 Y75.369
G0 X100.352 Y74.576
G0 X99.053 Y74.195
G0 X97.018 Y73.834
G0 X95.53 Y73.739
G0 X93.925 Y73.785
G0 X91.878 Y74.084
G0 X90.595 Y74.416
G0 X88.643 Y75.159
G0 X87.431 Y75.778
G0 X85.703 Y76.917
G0 X82.466 Y79.737
G0 X81.548 Y80.636
G0 X80.225 Y82.246
G0 X79.474 Y83.398
G0 X78.54 Y85.243
G0 X78.071 Y86.493
G0 X77.552 Y88.524
G0 X77.366 Y89.847
G0 X77.291 Y91.125
G0 X77.321 Y92.551
G0 X77.593 Y94.623
G0 X77.908 Y95.905
G0 X78.621 Y97.861
G0 X79.108 Y98.849
G0 X87.289 Y112.699
G0 X88 Y113.5
G1 F1500 E155.68758
G1 F1125 X88 Y143.307 E158.06691
G0 F9000 X86.4 Y142.26
G1 F1125 X86.4 Y114.816 E160.25761
G0 F9000 X84.8 Y116.023
G1 F1125 X84.8 Y140.922 E162.24515
G0 F9000 X83.2 Y139.5
G1 F1125 X83.2 Y117.569 E163.99578
G0 F9000 X81.6 Y119.293
G1 F1125 X81.6 Y137.806 E165.47357
G0 F9000 X80 Y135.37
G1 F1125 X80 Y121.727 E166.56261
G1 F1500 E159.56261
G0 F9000 X78.979 Y121.385
G0 X78.161 Y123.308
G0 X77.778 Y124.576
G0 X77.709 Y124.891
G0 X77.371 Y126.842
G0 X78.4 Y127.353
G1 F1500 E166.56261
G1 F1125 X78.4 Y129.654 E166.74629
G1 F1500 E159.74629
G0 F9000 X77.302 Y129.236
G0 X77.302 Y127.777
G0 X77.432 Y126.594
G0 X81.049 Y101.717
